X:353
T:Fiddlers Three
C:Traditional English/American
R:Jig
S:Colin Hume's website,  colinhume.com  - chords can also be printed below the stave.
Q:3/8=112
M:6/8
L:1/8
K:D
P:A
|: A | "D"F2A dcB | AFA f2e | "D"dAF DFA | "Em"BGE "A7"E2A |
"D"F2A dcB | "D"AFA "G"g2f | "A7"ecA ceg | "D"fdd d2 :|
P:B
|: f/g/ | "D"a2f "Bm"b2f | "Em"agf "A7"g2e | "A7"c2e a2g | "D"gfe fg^g |
"D"a2f "Bm"b2f | "Em"agf "A7"g2e | "A7"c2e gfe | "D"d2f d2 :|

